assets/images/btn_appstore_en.svg

<svg width="158" height="50" viewBox="0 0 158 50" fill="none" xmlns="http://www.w3.org/2000/svg">
<path fill-rule="evenodd" clip-rule="evenodd" d="M152.379 50H5.53468C2.48353 50 0 47.34 0 44.0837V5.9075C0 2.65 2.48353 0 5.53468 0H152.379C155.429 0 158 2.65 158 5.9075V44.0837C158 47.34 155.429 50 152.379 50Z" fill="#004177"/>
<path fill-rule="evenodd" clip-rule="evenodd" d="M39.5494 23.558C39.5193 20.2089 42.2857 18.5795 42.4122 18.5037C40.8455 16.2145 38.4171 15.9017 37.5638 15.8768C35.5242 15.6617 33.5459 17.0998 32.5069 17.0998C31.4472 17.0998 29.8473 15.8976 28.123 15.9329C25.9041 15.9672 23.8283 17.2547 22.6898 19.2539C20.3403 23.3304 22.0926 29.321 24.3436 32.616C25.4697 34.2298 26.7855 36.0316 28.5077 35.9683C30.1926 35.8986 30.822 34.8917 32.8553 34.8917C34.87 34.8917 35.461 35.9683 37.2174 35.9277C39.0258 35.8986 40.1642 34.3067 41.2509 32.6784C42.5522 30.8287 43.0747 29.0072 43.0955 28.9136C43.053 28.8991 39.5836 27.5721 39.5494 23.558Z" fill="white"/>
<path fill-rule="evenodd" clip-rule="evenodd" d="M36.2314 13.7092C37.1376 12.5734 37.7576 11.0282 37.5855 9.46021C36.2739 9.5184 34.6335 10.3694 33.689 11.4803C32.8532 12.4591 32.1067 14.0635 32.2995 15.5723C33.7729 15.6825 35.2857 14.8273 36.2314 13.7092Z" fill="white"/>
<path fill-rule="evenodd" clip-rule="evenodd" d="M64.6231 33.7043H62.2684L60.9785 29.6424H56.495L55.2663 33.7043H52.9738L57.4158 19.8757H60.1593L64.6231 33.7043ZM60.5897 27.9382L59.4232 24.3273C59.2998 23.9584 59.0686 23.0897 58.7274 21.7222H58.686C58.5501 22.3103 58.3313 23.179 58.0306 24.3273L56.8849 27.9382H60.5897Z" fill="white"/>
<path fill-rule="evenodd" clip-rule="evenodd" d="M76.0463 28.596C76.0463 30.2919 75.5891 31.6323 74.6746 32.6164C73.8554 33.4924 72.8383 33.9298 71.6241 33.9298C70.3135 33.9298 69.372 33.4581 68.7986 32.5145H68.7571V37.7673H66.5465V27.0155C66.5465 25.9494 66.5185 24.8552 66.4646 23.7329H68.4087L68.5321 25.3134H68.5736C69.3108 24.1226 70.4296 23.5282 71.931 23.5282C73.1047 23.5282 74.0846 23.9927 74.8685 24.9227C75.6544 25.8538 76.0463 27.0778 76.0463 28.596ZM73.7943 28.6771C73.7943 27.7065 73.5765 26.9064 73.139 26.2767C72.661 25.62 72.0191 25.2916 71.2145 25.2916C70.6691 25.2916 70.1735 25.4745 69.7308 25.8351C69.287 26.1987 68.9966 26.6736 68.8608 27.2618C68.7924 27.5361 68.7582 27.7606 68.7582 27.9372V29.5998C68.7582 30.3251 68.9801 30.9372 69.4238 31.437C69.8676 31.9368 70.4441 32.1862 71.1533 32.1862C71.986 32.1862 72.634 31.8641 73.0975 31.2219C73.562 30.5787 73.7943 29.7307 73.7943 28.6771Z" fill="white"/>
<path fill-rule="evenodd" clip-rule="evenodd" d="M87.4903 28.596C87.4903 30.2919 87.0331 31.6323 86.1175 32.6164C85.2994 33.4924 84.2822 33.9298 83.0681 33.9298C81.7574 33.9298 80.816 33.4581 80.2436 32.5145H80.2021V37.7673H77.9915V27.0155C77.9915 25.9494 77.9635 24.8552 77.9096 23.7329H79.8537L79.9771 25.3134H80.0186C80.7548 24.1226 81.8736 23.5282 83.376 23.5282C84.5487 23.5282 85.5286 23.9927 86.3145 24.9227C87.0973 25.8538 87.4903 27.0778 87.4903 28.596ZM85.2382 28.6771C85.2382 27.7065 85.0194 26.9064 84.5819 26.2767C84.1039 25.62 83.4641 25.2916 82.6585 25.2916C82.1121 25.2916 81.6175 25.4745 81.1737 25.8351C80.7299 26.1987 80.4406 26.6736 80.3048 27.2618C80.2374 27.5361 80.2021 27.7606 80.2021 27.9372V29.5998C80.2021 30.3251 80.424 30.9372 80.8657 31.437C81.3095 31.9358 81.886 32.1862 82.5973 32.1862C83.4299 32.1862 84.078 31.8641 84.5415 31.2219C85.006 30.5787 85.2382 29.7307 85.2382 28.6771Z" fill="white"/>
<path fill-rule="evenodd" clip-rule="evenodd" d="M100.285 29.8263C100.285 31.0026 99.8779 31.9596 99.0598 32.6985C98.1608 33.5059 96.9093 33.909 95.3011 33.909C93.8163 33.909 92.626 33.6222 91.7249 33.0476L92.2371 31.2011C93.2076 31.7892 94.2725 32.0843 95.4328 32.0843C96.2654 32.0843 96.9134 31.8952 97.379 31.519C97.8425 31.1429 98.0737 30.6379 98.0737 30.0082C98.0737 29.447 97.8829 28.9742 97.5003 28.5908C97.1198 28.2074 96.4842 27.8509 95.5966 27.5215C93.1807 26.6185 91.9738 25.2957 91.9738 23.5562C91.9738 22.4194 92.3968 21.4873 93.2439 20.762C94.0879 20.0357 95.214 19.673 96.6221 19.673C97.8777 19.673 98.9208 19.8923 99.7534 20.3298L99.2008 22.1358C98.4231 21.7118 97.5438 21.4998 96.5599 21.4998C95.7822 21.4998 95.1746 21.6921 94.7391 22.0745C94.371 22.4163 94.1865 22.833 94.1865 23.3266C94.1865 23.8732 94.3969 24.3252 94.82 24.6806C95.1881 25.0089 95.8569 25.3643 96.8274 25.7478C98.0146 26.2268 98.8866 26.7869 99.4475 27.4291C100.006 28.0692 100.285 28.8703 100.285 29.8263Z" fill="white"/>
<path fill-rule="evenodd" clip-rule="evenodd" d="M107.594 25.3955H105.158V30.2368C105.158 31.4681 105.587 32.0833 106.447 32.0833C106.842 32.0833 107.17 32.049 107.429 31.9804L107.491 33.6628C107.055 33.8259 106.482 33.908 105.771 33.908C104.898 33.908 104.216 33.6409 103.724 33.1079C103.233 32.5738 102.986 31.678 102.986 30.4197V25.3934H101.535V23.7308H102.986V21.9051L105.158 21.2484V23.7308H107.594V25.3955Z" fill="white"/>
<path fill-rule="evenodd" clip-rule="evenodd" d="M118.588 28.6365C118.588 30.1692 118.151 31.4276 117.278 32.4117C116.362 33.4248 115.147 33.9298 113.632 33.9298C112.172 33.9298 111.01 33.4446 110.143 32.474C109.276 31.5035 108.843 30.2783 108.843 28.8018C108.843 27.2566 109.289 25.9909 110.183 25.0069C111.076 24.0218 112.281 23.5292 113.796 23.5292C115.256 23.5292 116.43 24.0145 117.317 24.9861C118.165 25.9286 118.588 27.1454 118.588 28.6365ZM116.295 28.7082C116.295 27.7886 116.099 26.9999 115.702 26.3421C115.238 25.5462 114.576 25.1492 113.717 25.1492C112.828 25.1492 112.153 25.5472 111.69 26.3421C111.293 27.0009 111.097 27.8021 111.097 28.7498C111.097 29.6694 111.293 30.4581 111.69 31.1148C112.168 31.9108 112.836 32.3078 113.697 32.3078C114.541 32.3078 115.204 31.9025 115.682 31.0941C116.089 30.4238 116.295 29.6268 116.295 28.7082Z" fill="white"/>
<path fill-rule="evenodd" clip-rule="evenodd" d="M125.774 25.6813C125.555 25.6407 125.322 25.62 125.077 25.62C124.299 25.62 123.698 25.914 123.275 26.5032C122.907 27.0228 122.722 27.6795 122.722 28.4724V33.7043H120.513L120.533 26.8731C120.533 25.7239 120.505 24.6775 120.45 23.7339H122.376L122.457 25.6418H122.518C122.751 24.9861 123.119 24.4582 123.623 24.0623C124.116 23.7059 124.648 23.5282 125.221 23.5282C125.425 23.5282 125.61 23.5427 125.774 23.5687V25.6813Z" fill="white"/>
<path fill-rule="evenodd" clip-rule="evenodd" d="M135.66 28.2468C135.66 28.6438 135.634 28.9784 135.579 29.2517H128.948C128.974 30.2367 129.294 30.9901 129.91 31.5097C130.469 31.9742 131.191 32.2069 132.079 32.2069C133.061 32.2069 133.957 32.05 134.762 31.7352L135.109 33.2731C134.167 33.6846 133.056 33.8893 131.773 33.8893C130.23 33.8893 129.019 33.4341 128.138 32.5249C127.259 31.6157 126.818 30.3947 126.818 28.863C126.818 27.3594 127.227 26.1073 128.048 25.1087C128.906 24.0425 130.066 23.5095 131.526 23.5095C132.96 23.5095 134.046 24.0425 134.783 25.1087C135.367 25.9556 135.66 27.003 135.66 28.2468ZM133.552 27.6722C133.567 27.0155 133.423 26.4481 133.123 25.9691C132.74 25.3529 132.153 25.0453 131.361 25.0453C130.639 25.0453 130.051 25.3456 129.602 25.9483C129.234 26.4273 129.015 27.002 128.948 27.6712H133.552V27.6722Z" fill="white"/>
<path d="M53.5469 9.36328V15H55.4414C57.1172 15 58.1016 13.957 58.1016 12.1797C58.1016 10.4062 57.1133 9.36328 55.4414 9.36328H53.5469ZM54.25 9.99609H55.3945C56.6758 9.99609 57.3828 10.7773 57.3828 12.1875C57.3828 13.5859 56.6719 14.3672 55.3945 14.3672H54.25V9.99609ZM61.0547 15.0703C62.1758 15.0703 62.9336 14.2617 62.9336 12.9688C62.9336 11.6719 62.1758 10.8672 61.0547 10.8672C59.9297 10.8672 59.1719 11.6719 59.1719 12.9688C59.1719 14.2617 59.9297 15.0703 61.0547 15.0703ZM61.0547 14.4727C60.3359 14.4727 59.8633 13.9258 59.8633 12.9688C59.8633 12.0117 60.3359 11.4648 61.0547 11.4648C61.7734 11.4648 62.2422 12.0117 62.2422 12.9688C62.2422 13.9258 61.7734 14.4727 61.0547 14.4727ZM69.2891 10.9375H68.6172L67.8047 14.2422H67.7891L66.8672 10.9375H66.2109L65.293 14.2422H65.2773L64.4648 10.9375H63.7891L64.9258 15H65.6172L66.5312 11.8555H66.5469L67.4648 15H68.1562L69.2891 10.9375ZM70.3477 15H71.0273V12.6094C71.0273 11.9219 71.4453 11.4688 72.0859 11.4688C72.7109 11.4688 73.0195 11.8281 73.0195 12.4844V15H73.6992V12.3633C73.6992 11.4414 73.1836 10.8672 72.293 10.8672C71.6641 10.8672 71.2305 11.1484 71.0039 11.5859H70.9883V10.9375H70.3477V15ZM75.1016 15H75.7812V9.36328H75.1016V15ZM78.8828 15.0703C80.0039 15.0703 80.7617 14.2617 80.7617 12.9688C80.7617 11.6719 80.0039 10.8672 78.8828 10.8672C77.7578 10.8672 77 11.6719 77 12.9688C77 14.2617 77.7578 15.0703 78.8828 15.0703ZM78.8828 14.4727C78.1641 14.4727 77.6914 13.9258 77.6914 12.9688C77.6914 12.0117 78.1641 11.4648 78.8828 11.4648C79.6016 11.4648 80.0703 12.0117 80.0703 12.9688C80.0703 13.9258 79.6016 14.4727 78.8828 14.4727ZM83.1367 15.0703C83.6836 15.0703 84.1992 14.7656 84.4414 14.3008H84.457V15H85.1016V12.1914C85.1016 11.3828 84.5 10.8672 83.5469 10.8672C82.5859 10.8672 81.9844 11.4062 81.9375 12.1094H82.5938C82.6797 11.7109 83.0078 11.4648 83.5312 11.4648C84.0938 11.4648 84.4219 11.7617 84.4219 12.2578V12.5977L83.2578 12.6641C82.3203 12.7188 81.7852 13.1562 81.7852 13.8516C81.7852 14.582 82.3281 15.0703 83.1367 15.0703ZM83.2891 14.4922C82.8008 14.4922 82.4766 14.2383 82.4766 13.8516C82.4766 13.4688 82.7891 13.2266 83.3359 13.1914L84.4219 13.125V13.457C84.4219 14.043 83.9297 14.4922 83.2891 14.4922ZM88.0039 15.0703C88.5898 15.0703 89.0547 14.7812 89.3164 14.3125H89.3281V15H89.9766V9.36328H89.2969V11.5977H89.2812C89.0391 11.1523 88.5703 10.8672 87.9883 10.8672C86.9648 10.8672 86.2656 11.6953 86.2656 12.9688C86.2656 14.2422 86.9688 15.0703 88.0039 15.0703ZM88.1328 11.4648C88.832 11.4648 89.3008 12.0625 89.3008 12.9688C89.3008 13.8789 88.832 14.4727 88.1328 14.4727C87.4141 14.4727 86.9609 13.8906 86.9609 12.9688C86.9609 12.0508 87.4141 11.4648 88.1328 11.4648ZM95.2188 15.0703C96.3398 15.0703 97.0977 14.2617 97.0977 12.9688C97.0977 11.6719 96.3398 10.8672 95.2188 10.8672C94.0938 10.8672 93.3359 11.6719 93.3359 12.9688C93.3359 14.2617 94.0938 15.0703 95.2188 15.0703ZM95.2188 14.4727C94.5 14.4727 94.0273 13.9258 94.0273 12.9688C94.0273 12.0117 94.5 11.4648 95.2188 11.4648C95.9375 11.4648 96.4062 12.0117 96.4062 12.9688C96.4062 13.9258 95.9375 14.4727 95.2188 14.4727ZM98.2852 15H98.9648V12.6094C98.9648 11.9219 99.3828 11.4688 100.023 11.4688C100.648 11.4688 100.957 11.8281 100.957 12.4844V15H101.637V12.3633C101.637 11.4414 101.121 10.8672 100.23 10.8672C99.6016 10.8672 99.168 11.1484 98.9414 11.5859H98.9258V10.9375H98.2852V15ZM105.363 9.95703V10.9375H104.758V11.4961H105.363V13.9453C105.363 14.7266 105.652 15.0312 106.398 15.0312C106.559 15.0312 106.746 15.0195 106.828 15V14.4297C106.781 14.4375 106.625 14.4492 106.547 14.4492C106.199 14.4492 106.043 14.2812 106.043 13.9102V11.4961H106.832V10.9375H106.043V9.95703H105.363ZM108.094 15H108.773V12.6328C108.773 11.9297 109.191 11.4688 109.867 11.4688C110.504 11.4688 110.828 11.8555 110.828 12.5V15H111.508V12.375C111.508 11.4688 110.969 10.8672 110.078 10.8672C109.461 10.8672 109.016 11.1328 108.789 11.5859H108.773V9.36328H108.094V15ZM115.566 13.8359C115.453 14.2188 115.074 14.4805 114.559 14.4805C113.828 14.4805 113.371 13.9688 113.371 13.1914V13.1523H116.285V12.8945C116.285 11.6641 115.609 10.8672 114.512 10.8672C113.391 10.8672 112.672 11.7227 112.672 12.9844C112.672 14.2617 113.379 15.0703 114.543 15.0703C115.43 15.0703 116.117 14.5469 116.234 13.8359H115.566ZM114.5 11.457C115.141 11.457 115.566 11.9414 115.582 12.6211H113.375C113.418 11.9453 113.863 11.457 114.5 11.457Z" fill="white"/>
</svg>

<svg width="158" height="50" fill="none" xmlns="http://www.w3.org/2000/svg"><path fill-rule="evenodd" clip-rule="evenodd" d="M152.379 50H5.535C2.484 50 0 47.34 0 44.084V5.907C0 2.65 2.484 0 5.535 0h146.844C155.429 0 158 2.65 158 5.907v38.177c0 3.256-2.571 5.916-5.621 5.916z" fill="#004177"/><path fill-rule="evenodd" clip-rule="evenodd" d="M39.55 23.558c-.03-3.35 2.736-4.979 2.862-5.054-1.566-2.29-3.995-2.602-4.848-2.627-2.04-.215-4.018 1.223-5.057 1.223-1.06 0-2.66-1.202-4.384-1.167-2.219.034-4.295 1.322-5.433 3.32-2.35 4.077-.597 10.068 1.654 13.363 1.126 1.614 2.441 3.416 4.164 3.352 1.685-.07 2.314-1.076 4.347-1.076 2.015 0 2.606 1.076 4.362 1.036 1.809-.03 2.947-1.621 4.034-3.25 1.301-1.85 1.824-3.67 1.845-3.764-.043-.015-3.512-1.342-3.547-5.356zm-3.319-9.848c.907-1.137 1.527-2.682 1.355-4.25-1.312.058-2.953.91-3.897 2.02-.836.98-1.582 2.583-1.39 4.092 1.474.11 2.987-.745 3.932-1.863zm28.392 19.994h-2.355l-1.29-4.062h-4.483l-1.229 4.062h-2.292l4.442-13.828h2.743l4.464 13.828zm-4.033-5.766l-1.167-3.61c-.123-.37-.354-1.238-.696-2.606h-.041a104.09 104.09 0 01-.655 2.605l-1.146 3.611h3.705zm15.456.658c0 1.696-.457 3.036-1.371 4.02-.82.876-1.837 1.314-3.05 1.314-1.311 0-2.253-.472-2.826-1.416h-.042v5.253h-2.21V27.015c0-1.066-.028-2.16-.082-3.282h1.944l.123 1.58h.042c.737-1.19 1.856-1.785 3.357-1.785 1.174 0 2.154.465 2.938 1.395.785.93 1.177 2.155 1.177 3.673zm-2.252.081c0-.97-.218-1.77-.655-2.4-.478-.657-1.12-.985-1.924-.985-.546 0-1.041.182-1.484.543a2.52 2.52 0 00-.87 1.427 2.908 2.908 0 00-.103.675V29.6c0 .725.222 1.337.666 1.837.444.5 1.02.75 1.73.75.832 0 1.48-.323 1.944-.965.464-.643.696-1.491.696-2.545zm13.696-.081c0 1.696-.457 3.036-1.372 4.02-.819.876-1.836 1.314-3.05 1.314-1.31 0-2.252-.472-2.824-1.416h-.042v5.253h-2.21V27.015c0-1.066-.029-2.16-.082-3.282h1.944l.123 1.58h.042c.736-1.19 1.855-1.785 3.357-1.785 1.173 0 2.153.465 2.938 1.395.783.93 1.176 2.155 1.176 3.673zm-2.252.081c0-.97-.219-1.77-.656-2.4-.478-.657-1.118-.985-1.923-.985-.547 0-1.041.182-1.485.543a2.52 2.52 0 00-.87 1.427 2.964 2.964 0 00-.102.675V29.6c0 .725.222 1.337.664 1.837.444.499 1.02.75 1.731.75.833 0 1.481-.323 1.945-.965.464-.643.696-1.491.696-2.545zm15.047 1.149c0 1.177-.407 2.134-1.225 2.873-.9.807-2.15 1.21-3.759 1.21-1.485 0-2.675-.287-3.576-.861l.512-1.847a6.05 6.05 0 003.196.883c.832 0 1.48-.189 1.946-.565.463-.376.695-.881.695-1.51 0-.562-.191-1.035-.574-1.418-.38-.384-1.016-.74-1.903-1.07-2.416-.902-3.623-2.225-3.623-3.965 0-1.137.423-2.069 1.27-2.794.844-.726 1.97-1.089 3.378-1.089 1.256 0 2.299.22 3.131.657l-.552 1.806c-.778-.424-1.657-.636-2.641-.636-.778 0-1.385.192-1.82.575a1.643 1.643 0 00-.553 1.252c0 .546.21.998.633 1.354.368.328 1.037.683 2.007 1.067 1.188.479 2.06 1.039 2.62 1.681.559.64.838 1.441.838 2.397zm7.309-4.431h-2.436v4.842c0 1.231.429 1.846 1.289 1.846.395 0 .723-.034.982-.103l.062 1.683c-.436.163-1.009.245-1.72.245-.873 0-1.555-.267-2.047-.8-.491-.534-.738-1.43-.738-2.688v-5.027h-1.451v-1.662h1.451v-1.826l2.172-.657v2.483h2.436v1.664zm10.994 3.242c0 1.532-.437 2.79-1.31 3.775-.916 1.013-2.131 1.518-3.646 1.518-1.46 0-2.622-.485-3.489-1.456-.867-.97-1.3-2.196-1.3-3.672 0-1.545.446-2.811 1.34-3.795.893-.985 2.098-1.478 3.613-1.478 1.46 0 2.634.486 3.521 1.457.848.943 1.271 2.16 1.271 3.65zm-2.293.071c0-.92-.196-1.708-.593-2.366-.464-.796-1.126-1.193-1.985-1.193-.889 0-1.564.398-2.027 1.193-.397.659-.593 1.46-.593 2.408 0 .92.196 1.708.593 2.365.478.796 1.146 1.193 2.007 1.193.844 0 1.507-.405 1.985-1.214.407-.67.613-1.467.613-2.386zm9.479-3.027a3.826 3.826 0 00-.697-.061c-.778 0-1.379.294-1.802.883-.368.52-.553 1.177-.553 1.97v5.231h-2.209l.02-6.83c0-1.15-.028-2.197-.083-3.14h1.926l.081 1.908h.061c.233-.656.601-1.184 1.105-1.58a2.672 2.672 0 011.598-.534c.204 0 .389.015.553.04v2.113zm9.886 2.566c0 .397-.026.731-.081 1.005h-6.631c.026.985.346 1.738.962 2.258.559.464 1.281.697 2.169.697.982 0 1.878-.157 2.683-.472l.347 1.538c-.942.412-2.053.616-3.336.616-1.543 0-2.754-.455-3.635-1.364-.879-.91-1.32-2.13-1.32-3.662 0-1.504.409-2.756 1.23-3.754.858-1.067 2.018-1.6 3.478-1.6 1.434 0 2.52.534 3.257 1.6.584.847.877 1.894.877 3.138zm-2.108-.575c.015-.657-.129-1.224-.429-1.703-.383-.616-.97-.924-1.762-.924-.722 0-1.31.3-1.759.903-.368.48-.587 1.054-.654 1.723h4.604v.001z" fill="#fff"/><path d="M53.547 9.363V15h1.894c1.676 0 2.66-1.043 2.66-2.82 0-1.774-.988-2.817-2.66-2.817h-1.894zm.703.633h1.145c1.28 0 1.988.781 1.988 2.191 0 1.399-.711 2.18-1.989 2.18H54.25v-4.37zm6.805 5.074c1.12 0 1.879-.808 1.879-2.101 0-1.297-.758-2.102-1.88-2.102-1.124 0-1.882.805-1.882 2.102 0 1.293.758 2.101 1.883 2.101zm0-.597c-.72 0-1.192-.547-1.192-1.504s.473-1.504 1.192-1.504c.718 0 1.187.547 1.187 1.504s-.469 1.504-1.187 1.504zm8.234-3.536h-.672l-.812 3.305h-.016l-.922-3.305h-.656l-.918 3.305h-.016l-.812-3.305h-.676L64.926 15h.691l.914-3.145h.016L67.465 15h.691l1.133-4.063zM70.348 15h.68v-2.39c0-.688.417-1.141 1.058-1.141.625 0 .933.36.933 1.015V15h.68v-2.637c0-.922-.515-1.496-1.406-1.496-.629 0-1.063.281-1.29.719h-.015v-.649h-.64V15zm4.754 0h.68V9.363h-.68V15zm3.78.07c1.122 0 1.88-.808 1.88-2.101 0-1.297-.758-2.102-1.88-2.102-1.124 0-1.882.805-1.882 2.102 0 1.293.758 2.101 1.883 2.101zm0-.597c-.718 0-1.19-.547-1.19-1.504s.472-1.504 1.19-1.504c.72 0 1.188.547 1.188 1.504s-.468 1.504-1.187 1.504zm4.255.597c.547 0 1.062-.304 1.304-.77h.016v.7h.645v-2.809c0-.808-.602-1.324-1.555-1.324-.961 0-1.563.54-1.61 1.242h.657c.086-.398.414-.644.937-.644.563 0 .89.297.89.793v.34l-1.163.066c-.938.055-1.473.492-1.473 1.188 0 .73.543 1.218 1.352 1.218zm.152-.578c-.488 0-.812-.254-.812-.64 0-.383.312-.625.859-.66l1.086-.067v.332c0 .586-.492 1.035-1.133 1.035zm4.715.578c.586 0 1.05-.289 1.312-.758h.012V15h.649V9.363h-.68v2.235h-.016c-.242-.446-.71-.73-1.293-.73-1.023 0-1.722.827-1.722 2.1 0 1.274.703 2.102 1.738 2.102zm.129-3.605c.699 0 1.168.598 1.168 1.504 0 .91-.469 1.504-1.168 1.504-.719 0-1.172-.582-1.172-1.504 0-.918.453-1.504 1.172-1.504zm7.086 3.605c1.12 0 1.879-.808 1.879-2.101 0-1.297-.758-2.102-1.88-2.102-1.124 0-1.882.805-1.882 2.102 0 1.293.758 2.101 1.883 2.101zm0-.597c-.719 0-1.192-.547-1.192-1.504s.473-1.504 1.192-1.504 1.187.547 1.187 1.504-.469 1.504-1.187 1.504zm3.066.527h.68v-2.39c0-.688.418-1.141 1.058-1.141.625 0 .934.36.934 1.015V15h.68v-2.637c0-.922-.516-1.496-1.407-1.496-.628 0-1.062.281-1.289.719h-.015v-.649h-.64V15zm7.078-5.043v.98h-.605v.56h.605v2.448c0 .782.289 1.086 1.035 1.086.161 0 .348-.011.43-.031v-.57c-.047.008-.203.02-.281.02-.348 0-.504-.169-.504-.54v-2.414h.789v-.559h-.789v-.98h-.68zM108.094 15h.679v-2.367c0-.703.418-1.164 1.094-1.164.637 0 .961.386.961 1.031V15h.68v-2.625c0-.906-.539-1.508-1.43-1.508-.617 0-1.062.266-1.289.719h-.016V9.363h-.679V15zm7.472-1.164c-.113.383-.492.644-1.007.644-.731 0-1.188-.511-1.188-1.289v-.039h2.914v-.257c0-1.23-.676-2.028-1.773-2.028-1.121 0-1.84.856-1.84 2.117 0 1.278.707 2.086 1.871 2.086.887 0 1.574-.523 1.691-1.234h-.668zm-1.066-2.379c.641 0 1.066.484 1.082 1.164h-2.207c.043-.676.488-1.164 1.125-1.164z" fill="#fff"/></svg>
